assets/icons/shield.svg

<svg width="65" height="64" viewBox="0 0 65 64" fill="none" xmlns="http://www.w3.org/2000/svg">
<g clip-path="url(#clip0_973_748)">
<path d="M32.5005 19.8071C25.7764 19.8071 20.3062 25.2773 20.3062 32.0009C20.3062 38.725 25.7764 44.1952 32.5005 44.1952C39.2241 44.1952 44.6943 38.725 44.6943 32.0009C44.6943 25.2773 39.2241 19.8071 32.5005 19.8071ZM39.7402 29.7046L31.0044 38.4404C30.6377 38.8071 30.1567 38.9907 29.6762 38.9907C29.1958 38.9907 28.7153 38.8076 28.3486 38.4404L25.0102 35.102C24.2768 34.3691 24.2768 33.1801 25.0102 32.4467C25.7431 31.7133 26.9321 31.7133 27.6655 32.4467L29.6762 34.4575L37.0849 27.0493C37.8178 26.3159 39.0068 26.3159 39.7402 27.0493C40.4736 27.7822 40.4736 28.9712 39.7402 29.7046Z" fill="#F6F6F6"/>
<path d="M59.6859 17.3648L59.6839 17.315C59.6561 16.7003 59.6375 16.0499 59.6263 15.3263C59.574 11.7975 56.7689 8.87852 53.2396 8.68125C45.8812 8.27061 40.1888 5.8712 35.3251 1.13049L35.2836 1.09094C33.6972 -0.363646 31.3041 -0.363646 29.7172 1.09094L29.6757 1.13049C24.8119 5.8712 19.1196 8.27061 11.7612 8.68174C8.23239 8.87852 5.42673 11.7975 5.37449 15.3267C5.36375 16.0455 5.3447 16.6959 5.31687 17.315L5.31394 17.4307C5.17088 24.9341 4.99314 34.2725 8.11716 42.7485C9.83493 47.4097 12.4365 51.4614 15.8491 54.792C19.7358 58.5849 24.8266 61.5961 30.9799 63.7416C31.1801 63.8115 31.3881 63.8681 31.6 63.9106C31.8988 63.9702 32.1996 63.9999 32.5004 63.9999C32.8012 63.9999 33.1024 63.9702 33.4008 63.9106C33.6127 63.8681 33.8222 63.811 34.0233 63.7407C40.1693 61.5913 45.2547 58.5786 49.138 54.7861C52.5492 51.4546 55.1507 47.4018 56.8699 42.7397C60.0057 34.2383 59.8284 24.8824 59.6859 17.3648ZM32.4994 47.9507C23.7045 47.9507 16.5498 40.7959 16.5498 32.001C16.5498 23.2061 23.7045 16.0513 32.4994 16.0513C41.2938 16.0513 48.4491 23.2061 48.4491 32.001C48.4491 40.7959 41.2938 47.9507 32.4994 47.9507Z" fill="#F6F6F6"/>
</g>
<defs>
<clipPath id="clip0_973_748">
<rect width="64" height="64" fill="white" transform="translate(0.5)"/>
</clipPath>
</defs>
</svg>

<svg width="65" height="64" fill="none" xmlns="http://www.w3.org/2000/svg"><g clip-path="url(#a)" fill="#F6F6F6"><path d="M32.5 19.807c-6.724 0-12.194 5.47-12.194 12.194 0 6.724 5.47 12.194 12.195 12.194 6.723 0 12.193-5.47 12.193-12.194 0-6.724-5.47-12.194-12.194-12.194Zm7.24 9.898-8.736 8.735a1.873 1.873 0 0 1-2.655 0l-3.339-3.338a1.877 1.877 0 1 1 2.655-2.655l2.011 2.01 7.409-7.408a1.877 1.877 0 1 1 2.655 2.656Z"/><path d="m59.686 17.365-.002-.05a66.712 66.712 0 0 1-.058-1.989c-.052-3.529-2.857-6.447-6.386-6.645-7.359-.41-13.051-2.81-17.915-7.55l-.041-.04a4.096 4.096 0 0 0-5.567 0l-.041.04C24.812 5.87 19.12 8.27 11.76 8.68c-3.529.198-6.334 3.117-6.387 6.646-.01.719-.03 1.369-.057 1.988l-.003.116c-.143 7.503-.32 16.841 2.803 25.317 1.718 4.662 4.32 8.713 7.732 12.044 3.887 3.793 8.978 6.804 15.13 8.95A4.671 4.671 0 0 0 32.5 64a4.594 4.594 0 0 0 1.523-.26c6.146-2.149 11.232-5.161 15.115-8.954 3.411-3.331 6.013-7.384 7.732-12.046 3.136-8.502 2.958-17.858 2.816-25.375ZM32.499 47.95c-8.795 0-15.95-7.155-15.95-15.95 0-8.795 7.155-15.95 15.95-15.95 8.795 0 15.95 7.155 15.95 15.95 0 8.795-7.155 15.95-15.95 15.95Z"/></g><defs><clipPath id="a"><path fill="#fff" transform="translate(.5)" d="M0 0h64v64H0z"/></clipPath></defs></svg>
